build/img/icon-phone.svg

<svg width="35" height="35" viewBox="0 0 35 35" fill="none" xmlns="http://www.w3.org/2000/svg">
<circle cx="17.5" cy="17.5" r="17.5" fill="#B70046"/>
<path d="M22.9569 19.533C22.1609 19.533 21.3795 19.4085 20.6389 19.1638C20.276 19.04 19.8299 19.1536 19.6084 19.381L18.1467 20.4845C16.4516 19.5796 15.4074 18.5357 14.5148 16.8533L15.5858 15.4296C15.8641 15.1518 15.9639 14.7459 15.8443 14.365C15.5985 13.6205 15.4736 12.8394 15.4736 12.0432C15.4737 11.468 15.0057 11 14.4305 11H12.0431C11.468 11 11 11.468 11 12.0431C11 18.6362 16.3638 24 22.9569 24C23.532 24 24 23.532 24 22.9568V20.5761C24 20.001 23.532 19.533 22.9569 19.533Z" fill="white"/>
</svg>

<svg width="35" height="35" fill="none" xmlns="http://www.w3.org/2000/svg"><circle cx="17.5" cy="17.5" r="17.5" fill="#B70046"/><path d="M22.957 19.533a7.382 7.382 0 01-2.318-.37c-.363-.123-.81-.01-1.03.218l-1.462 1.104c-1.695-.905-2.74-1.95-3.632-3.632l1.07-1.423a1.05 1.05 0 00.26-1.065 7.392 7.392 0 01-.371-2.322c0-.575-.468-1.043-1.043-1.043h-2.388c-.575 0-1.043.468-1.043 1.043C11 18.636 16.364 24 22.957 24c.575 0 1.043-.468 1.043-1.043v-2.38c0-.576-.468-1.044-1.043-1.044z" fill="#fff"/></svg>
